16x16/apps/whalebird.svg

<svg xmlns="http://www.w3.org/2000/svg" width="16" height="16" version="1">
 <rect style="fill:#40e0ca" width="16" height="16" x="0" y="0" rx="4.8" ry="4.8"/>
 <path style="fill:#f4f4f7" d="M 9.6904671,12.81026 C 9.4735609,12.701306 9.2323502,12.519975 9.1239413,12.384373 8.8746494,12.072548 8.7951206,12.010928 8.5601194,12.191105 8.2537639,12.425991 7.8348152,12.549041 7.4438426,12.585777 6.918941,12.635096 6.876903,12.581533 7.0812488,12.123823 7.4295229,11.343728 7.4297912,10.808333 7.0819952,10.029451 6.8446368,9.497794 6.7185902,9.4152876 6.147484,9.4177488 5.8615574,9.4189888 5.5587997,9.4626944 5.3613662,9.5312536 5.0081614,9.6539056 4.4510923,9.8500712 4.3989464,9.9866708 c -0.019521,0.051134 0.052256,0.1576412 0.1744914,0.2589222 0.3796159,0.314541 0.5121852,0.847408 0.3236605,1.300963 -0.08559,0.205908 -0.2550103,0.40993 -0.3404099,0.40993 -0.026624,0 -0.095519,-0.124004 -0.1531008,-0.275564 C 4.3460062,11.529362 4.2286503,11.189884 4.1427961,11.122 3.6676381,10.746295 2.6915049,11.42751 2.4083307,12.208187 2.3352573,12.409687 2.2473653,12.565138 2.2130296,12.553633 2.0783672,12.50851 1.97872,12.048481 2.0039098,11.588187 2.0427477,10.878514 2.4114834,10.285922 3.0252425,9.9468156 L 3.2380673,9.829228 3.3073717,9.1251824 C 3.3877734,8.3084076 3.5055704,7.8590952 3.7961967,7.2606736 4.2707351,6.2835568 5.1548361,5.4699904 6.0967567,5.0167992 6.3822353,4.8794444 6.684509,4.7328276 6.7684748,4.690984 6.8805931,4.6351092 6.915854,4.5749852 6.9012432,4.4645932 6.8715118,4.2399564 6.6083399,3.6843396 6.4317412,3.47337 6.2359703,3.2394984 6.2971173,3.1501108 6.7144019,3.0601544 c 0.62183,-0.1340536 1.2573562,-0.040879 1.8202682,0.247792 0.3520864,0.1805568 0.8748952,0.6933508 1.106109,1.0849224 0.1710869,0.2897444 0.2562139,0.3611188 0.7167339,0.600946 2.193979,1.1425708 3.163231,3.611934 2.366147,6.0282412 -0.123553,0.374543 -0.302068,0.750342 -0.486401,1.023946 C 11.773756,12.733973 11.291746,13 10.508719,13 10.138502,13 10.007848,12.96971 9.6904231,12.81026 Z"/>
</svg>

<svg xmlns="http://www.w3.org/2000/svg" width="16" height="16" version="1"><rect style="fill:#40e0ca" width="16" height="16" rx="4.8" ry="4.8"/><path style="fill:#f4f4f7" d="M9.69 12.81c-.216-.109-.458-.29-.566-.426-.25-.311-.329-.373-.564-.193-.306.235-.725.358-1.116.395-.525.05-.567-.004-.363-.462.349-.78.349-1.316.001-2.095-.237-.531-.363-.614-.935-.611a2.653 2.653 0 0 0-.786.113c-.353.123-.91.32-.962.456-.02.05.052.157.174.259.38.314.513.847.324 1.3-.085.206-.255.41-.34.41-.027 0-.096-.124-.153-.275-.058-.152-.175-.491-.261-.559-.475-.376-1.451.306-1.735 1.086-.073.202-.16.357-.195.346-.135-.045-.234-.506-.21-.966a1.95 1.95 0 0 1 1.022-1.641l.213-.118.07-.704c.08-.817.198-1.266.488-1.864.475-.977 1.359-1.791 2.3-2.244.286-.138.589-.284.672-.326.113-.056.148-.116.133-.226-.03-.225-.293-.78-.47-.992-.195-.234-.134-.323.283-.413a2.716 2.716 0 0 1 1.82.248c.353.18.876.693 1.107 1.085.17.29.256.361.717.6 2.193 1.143 3.163 3.613 2.366 6.03-.124.374-.302.75-.487 1.023-.463.688-.945.954-1.728.954-.37 0-.501-.03-.819-.19z"/></svg>
